packages/core/src/svgs/tokens/mono/AVAX.svg

<svg width="24" height="24" viewBox="0 0 24 24" fill="none" xmlns="http://www.w3.org/2000/svg">
<path d="M7.01906 20.7494H3.65676C2.95057 20.7494 2.60059 20.7494 2.38809 20.6182C2.15686 20.4681 2.01312 20.2245 2.00063 19.9557C1.98813 19.7056 2.16312 19.4057 2.51309 18.7995L10.8126 4.37541C11.1689 3.76295 11.35 3.45672 11.575 3.34423C11.8125 3.21924 12.1062 3.21924 12.3499 3.34423C12.5749 3.45672 12.7499 3.76295 13.0999 4.37541L14.8123 7.31273L14.8185 7.32522C15.0998 7.74065 15.3228 8.19276 15.481 8.66889C15.5748 9.04386 15.5748 9.45008 15.481 9.83131C15.3235 10.3117 15.1007 10.768 14.8185 11.1875L10.4564 18.7869L10.4438 18.812C10.22 19.2661 9.93387 19.6868 9.59381 20.0619C9.30012 20.3369 8.95017 20.5368 8.5627 20.6557C8.20647 20.7494 7.81275 20.7494 7.01906 20.7494ZM15.5122 20.7494H20.3244C21.0432 20.7494 21.3994 20.7494 21.6119 20.6119C21.8432 20.4619 21.9868 20.2182 21.9993 19.9494C22.0119 19.7056 21.843 19.4182 21.5056 18.8495L21.4681 18.7869L19.0557 14.7247L19.0308 14.6747C18.6934 14.1123 18.5184 13.8248 18.2996 13.7123C18.0558 13.5873 17.7745 13.5873 17.5309 13.7123C17.3059 13.8248 17.1309 14.1248 16.7809 14.7247L14.3685 18.7932V18.8057C14.0124 19.4057 13.8373 19.7056 13.8498 19.9494C13.8624 20.2182 14.0062 20.4681 14.2373 20.6182C14.4436 20.7494 14.7997 20.7494 15.5122 20.7494Z" fill="white"/>
</svg>

<svg xmlns="http://www.w3.org/2000/svg" width="24" height="24" fill="none" viewBox="0 0 24 24">
    <path fill="#fff" d="M7.02 20.75H3.656c-.706 0-1.056 0-1.269-.132A.84.84 0 0 1 2 19.956c-.013-.25.162-.55.512-1.157l8.3-14.424c.356-.612.537-.918.762-1.03a.85.85 0 0 1 .775 0c.225.112.4.418.75 1.03l1.712 2.938.007.012c.28.416.504.868.662 1.344a2.4 2.4 0 0 1 0 1.162c-.158.48-.38.937-.662 1.357l-4.363 7.599-.012.025c-.224.454-.51.875-.85 1.25a2.6 2.6 0 0 1-1.031.594c-.357.093-.75.093-1.544.093m8.492 0h4.812c.72 0 1.075 0 1.288-.138a.84.84 0 0 0 .387-.663c.013-.243-.156-.53-.493-1.1l-.038-.062-2.412-4.062-.025-.05c-.338-.563-.513-.85-.731-.963a.84.84 0 0 0-.77 0c-.224.113-.4.413-.75 1.013l-2.412 4.068v.013c-.356.6-.53.9-.518 1.143a.85.85 0 0 0 .387.67c.207.13.563.13 1.275.13"/>
</svg>
